X: 1
T: Syrtos Kritikos [Am]
T: Ta mavra rukha
R: syrtos
Z: 1998 by John Chambers <jc@trillian.mit.edu> http://trillian.mit.edu/~jc/music/
L: 1/8
M: 4/4
K: Ador
P: Instr.
|: "Dm"z~d2c ~d2cB | "Am"z~c2B ~c2BA | "G"z~d2B ~c2BG |1 "Am"ABcd "Dm"~e2d2 :|2 "Am"A>B AG FGA2 :|
P: Vocal
| A8- | A8 |: "Dm"zd2c d2cB | "Am"zc2B c2BA | "G"zd2B c2BB |1 "Am"ABcd "Dm"edd2 :|2 "Am"A3G FGA2 :|
